icons/desktop/16/svg/passkey-16.svg

<svg width="16" height="16" viewBox="0 0 16 16" fill="none" xmlns="http://www.w3.org/2000/svg">
<g clip-path="url(#clip0_8069_32526)">
<path d="M5 6.99976C5.55222 6.99976 5.9999 7.44756 6 7.99976C6 8.55204 5.55228 8.99976 5 8.99976C4.44772 8.99976 4 8.55204 4 7.99976C4.0001 7.44756 4.44778 6.99976 5 6.99976Z" fill="black"/>
<path fill-rule="evenodd" clip-rule="evenodd" d="M4.92383 3.07593C6.81998 3.07593 8.45165 4.15187 9.27344 5.71558L13.376 5.70581C15.5769 5.7002 16.8018 8.25279 15.4141 9.9646C14.5948 10.9743 13.1553 11.2284 12.04 10.5593L11.8926 10.4695L11.6611 10.7019C11.0502 11.3128 10.0591 11.3128 9.44824 10.7019L9.18945 10.4431C8.34307 11.921 6.75529 12.9236 4.92383 12.9236C2.20469 12.9235 0 10.7189 0 7.99976C9.27885e-05 5.28068 2.20475 3.07602 4.92383 3.07593ZM4.92383 4.57593C3.03318 4.57602 1.50009 6.10911 1.5 7.99976C1.5 9.89049 3.03312 11.4235 4.92383 11.4236C6.36772 11.4236 7.60161 10.5244 8.10352 9.25073L8.15332 9.14819C8.28616 8.92028 8.53137 8.7762 8.80078 8.77612H9.33301L9.48047 8.79077C9.62444 8.81965 9.75792 8.89048 9.86328 8.99585L10.5098 9.64136C10.5349 9.66637 10.5755 9.66643 10.6006 9.64136L11.2471 8.99585L11.3438 8.91382C11.5833 8.74412 11.9048 8.72831 12.1631 8.88354L12.8125 9.27319C13.2871 9.55795 13.8992 9.44922 14.248 9.01929C14.8383 8.2911 14.3189 7.20342 13.3799 7.20581L8.80078 7.21753C8.49254 7.21826 8.21508 7.03048 8.10156 6.7439C7.59786 5.47259 6.36599 4.57593 4.92383 4.57593Z" fill="black"/>
</g>
<defs>
<clipPath id="clip0_8069_32526">
<rect width="16" height="16" fill="white"/>
</clipPath>
</defs>
</svg>

<!-- This Source Code Form is subject to the terms of the Mozilla Public
   - License, v. 2.0. If a copy of the MPL was not distributed with this
   - file, You can obtain one at http://mozilla.org/MPL/2.0/. -->
<svg xmlns="http://www.w3.org/2000/svg" width="16" height="16" fill="context-fill" fill-opacity="context-fill-opacity" viewBox="0 0 16 16">
    <g clip-path="url(#clip0_8069_32526)">
        <path d="M5 7a1 1 0 1 1 0 2 1 1 0 0 1 0-2" />
        <path fill-rule="evenodd" d="M4.924 3.076a4.91 4.91 0 0 1 4.35 2.64l4.102-.01c2.2-.006 3.426 2.547 2.038 4.259a2.615 2.615 0 0 1-3.374.594l-.147-.09-.232.233c-.61.61-1.602.61-2.213 0l-.259-.259a4.91 4.91 0 0 1-4.265 2.48 4.924 4.924 0 0 1 0-9.847m0 1.5a3.424 3.424 0 0 0 0 6.848 3.42 3.42 0 0 0 3.18-2.173l.05-.103a.75.75 0 0 1 .647-.372h.532l.147.015a.75.75 0 0 1 .383.205l.647.645a.064.064 0 0 0 .09 0l.647-.645.097-.082a.75.75 0 0 1 .82-.03l.649.39a1.11 1.11 0 0 0 1.435-.255c.59-.728.07-1.816-.868-1.813l-4.58.012a.75.75 0 0 1-.698-.474 3.42 3.42 0 0 0-3.178-2.168" clip-rule="evenodd" />
    </g>
</svg>
